src/assets/background/invite-ranktop.svg

<svg width="331" height="20" viewBox="0 0 331 20" fill="none" xmlns="http://www.w3.org/2000/svg">
<path d="M3.08156 5.36L3.36156 3.4L2.86156 2.82H6.80156L6.44156 5.36H7.50156L7.24156 7.14H6.20156L5.88156 9.4L6.78156 9.14L6.48156 11.22L5.58156 11.48L4.98156 15.84C4.92823 16.2267 4.74823 16.5467 4.44156 16.8C4.14823 17.04 3.8149 17.16 3.44156 17.16H0.341563L1.68156 15.36L2.08156 12.52L0.961563 12.84L1.26156 10.74L2.36156 10.42L2.82156 7.14H1.80156L2.06156 5.36H3.08156ZM9.02156 8.8L9.34156 6.54H7.68156L7.96156 4.64H9.60156L9.76156 3.6L9.24156 2.8H12.9816L10.9416 17.18H7.84156L8.22156 14.5H6.56156L6.84156 12.6H8.48156L8.76156 10.7H7.12156L7.38156 8.8H9.02156ZM13.8216 2.78H16.9216L16.6616 4.62H18.2616L17.9816 6.52H16.3816L16.0616 8.8H17.7016L17.4416 10.7H15.8016L15.5216 12.58H17.2016L16.9216 14.48H15.2616L14.8816 17.18H11.7816L13.8216 2.78ZM35.54 11.14L34.74 16.84H18.78L19.58 11.14H35.54ZM28.2 6.58L28.9 8.3H30.38L32.5 5.74L32.54 5.44H24.58L23.62 6.58H19.82L22.64 3.24L22.24 2.78H26.82L26.18 3.54H36.6L36.2 6.4L33 10.2H19.7L19.98 8.3H25.1L24.4 6.58H28.2ZM31.2 14.94L31.46 13.04H23.1L22.84 14.94H31.2Z" fill="white"/>
<path d="M91.9416 4.12L91.6016 3.54H97.9416L96.1416 16.36H90.2216L91.9416 4.12ZM108.382 3.16L107.682 8.12H101.062L99.3816 17.16H96.6216L99.1016 3.16H108.382ZM107.102 12.38L103.822 13.24L103.602 14.92H105.962L106.802 14.16L106.382 17.18H100.242L101.442 8.6H104.482L104.142 10.96L107.422 10.1L107.102 12.38ZM105.662 4.98H101.382L101.182 6.3H105.462L105.662 4.98ZM94.0616 14.56L94.6016 10.74H93.4016L92.8616 14.56H94.0616ZM93.6616 8.86H94.8616L95.3616 5.34H94.1616L93.6616 8.86ZM116.8 4.68L115.26 4.78L115.06 6.2H117.16L116.88 8.1H114.8L113.52 17.18H110.66L111.94 8.1H110.04L110.32 6.2H112.2L112.38 4.96L110.48 5.06L110.74 3.16L117.08 2.78L116.8 4.68ZM122.26 15.86C122.193 16.2467 122.013 16.5667 121.72 16.82C121.427 17.06 121.087 17.18 120.7 17.18H117.5L119.3 15.32L120.46 6.96H123.5L122.26 15.86ZM118.6 3.26L118.22 2.78H121.44L120.92 4.3H126.92L126.12 7.34H123.84L124.14 6.2H120.3L119.8 7.72H117.14L118.6 3.26ZM125.76 8.48L125.26 16.08H123.36L123.86 8.48H125.76ZM119.7 8.48L118.04 16.08H116.14L117.8 8.48H119.7ZM111.46 8.86L110.02 16.46H108.5L109.94 8.86H111.46ZM116.6 8.86L115.88 15.32H114.36L115.08 8.86H116.6Z" fill="white"/>
<path d="M184.143 8.62L184.103 8.96L184.663 9.78L185.623 8.64L185.703 8.1H181.083L179.923 14.18H176.923L178.983 3.28L189.183 2.98L188.903 4.88L181.643 5.18L181.423 6.3H188.723L188.343 9.1L186.223 11.42L187.983 14.22L184.943 14.26L184.203 13.02L183.043 14.38H179.963L182.803 11.46L181.423 9.22L181.503 8.64L184.143 8.62ZM171.623 16.84L172.663 14.94L173.623 8.02H172.983L173.243 6.2H177.303L176.183 14.12L178.943 14.94H188.023L187.743 16.84H177.323L175.363 16.26L175.043 16.84H171.623ZM176.603 3.16L177.423 5.4H174.383L173.563 3.16H176.603ZM200.262 4.86L197.562 5.04L197.302 6.96H200.342L200.082 8.86H197.022L195.862 17.18H192.822L193.982 8.86H190.962L191.222 6.96H194.262L194.502 5.26L191.622 5.44L191.882 3.54L200.522 2.96L200.262 4.86ZM207.722 3.16L205.922 15.86C205.868 16.2467 205.695 16.5667 205.402 16.82C205.108 17.06 204.768 17.18 204.382 17.18H201.002L202.762 15.32L204.402 3.74L203.922 3.16H207.722ZM203.502 4.68L202.062 14.94H199.802L201.242 4.68H203.502ZM189.882 16.46L191.262 9.42H193.542L192.162 16.46H189.882ZM196.722 16.46L197.342 9.42H199.622L199.002 16.46H196.722ZM223.84 8.48L223.74 9.24H219.56L219.38 10.56H225.46L225.2 12.46H219.12L218.76 14.94H219.7L221.06 13.04H224.48L223.12 14.94H225.22L224.96 16.84H208.24L208.5 14.94H210.84L210.04 13.04H213.46L214.18 14.94H214.96L215.32 12.46H209.24L209.5 10.56H215.58L215.76 9.24H211.58L211.68 8.48H209.42L213.22 3.62L212.82 3.16H223.46L226.16 8.48H223.84ZM214.68 7.34H221.2L220.06 5.06H216.48L214.68 7.34ZM244.518 3.16L244.258 5.04H241.278L240.898 6H243.798L242.798 13.18H240.998L240.698 12.7L241.398 7.74H238.038L237.338 12.7L236.918 13.18H235.098L236.098 6H238.258L238.658 5.04H236.218L236.478 3.16H244.518ZM234.418 11.78L233.718 16.88H226.678L227.378 11.78H234.418ZM231.698 11.36L231.158 10.84L230.358 11.36H227.078L227.318 9.72H229.998L229.398 9.16L229.378 9.2H227.338L228.898 6.18H231.018L230.858 6.46H235.458L235.218 8.16L232.858 9.72H235.018L234.778 11.36H231.698ZM240.718 8.44L240.118 12.7L242.618 17.14H239.638L238.738 14.64L236.958 17.14H234.178L237.918 12.64L238.518 8.44H240.718ZM233.558 5.1H229.918L229.798 5.98H227.458L227.778 3.76H230.458L230.498 3.56L229.838 2.8H233.458L233.318 3.76H236.098L235.778 5.98H233.438L233.558 5.1ZM231.318 15.38L231.618 13.3H229.778L229.478 15.38H231.318ZM230.718 7.88L231.458 8.62L232.398 7.88H230.718Z" fill="white"/>
<path d="M268.243 4.44H269.983L270.063 3.94L269.303 3.18H273.363L273.183 4.44H275.623L275.363 6.34H272.923L272.683 7.94H274.663L274.403 9.84H272.423L272.203 11.44H274.183L273.903 13.34H271.923L271.703 14.94H274.163L273.903 16.82H266.503L266.463 17.14H263.343L264.883 6.14L264.243 6.34L264.563 4.06L268.483 2.78L268.243 4.44ZM259.923 5.36L260.203 3.4L259.703 2.82H263.643L263.283 5.36H263.943L263.703 7.14H263.023L262.723 9.3L263.243 9.14L262.943 11.22L262.443 11.38L261.823 15.84C261.756 16.2267 261.576 16.5467 261.283 16.8C260.99 17.04 260.656 17.16 260.283 17.16H257.183L258.523 15.36L258.923 12.48L257.783 12.84L258.083 10.74L259.203 10.4L259.663 7.14H258.603L258.843 5.36H259.923ZM266.763 14.94H268.523L268.743 13.34H266.983L266.763 14.94ZM267.263 11.44H269.003L269.223 9.84H267.483L267.263 11.44ZM267.743 7.94H269.503L269.723 6.34H267.983L267.743 7.94ZM278.362 4.94L277.742 4.24H284.782L284.882 3.54L284.242 2.78H289.162L288.942 4.24H293.842L293.582 6.14H281.542L279.162 17.16H275.742L278.362 4.94ZM307.9 2.78L305.92 5.86L311.56 17.18H307.76L303.8 9.14L298.64 17.18H294.84L303.76 3.28L303.34 2.78H307.9ZM325.358 14.94L323.818 17.18H317.358L316.858 16.72L316.218 17.18H312.418L315.158 15.18L313.658 13.8L313.918 11.9H313.178L313.438 10H314.178L314.278 9.36H316.938L316.838 10H318.738L318.838 9.36H321.498L321.398 10H322.178L321.918 11.9H321.138L320.878 13.8L318.978 15.18L320.918 16.98L324.078 12.38L322.338 8.86H325.378L325.858 9.82L326.518 8.86V8.84L326.878 6.2H326.158L325.478 8.1H322.438L324.158 3.24L323.778 2.78H327.378L326.838 4.3H330.758L330.498 6.2H329.918L329.558 8.84L327.118 12.38L329.518 17.18H326.478L325.358 14.94ZM314.998 6.96H313.858L314.138 5.06H317.178L317.398 3.52L317.058 2.78H320.158L319.838 5.06H322.878L322.598 6.96H321.358L322.278 9.24H319.998L319.438 7.86L319.238 9.24H316.578L316.798 7.72L315.818 9.24H313.538L314.998 6.96ZM320.858 3.16H323.138L322.538 4.68H320.258L320.858 3.16ZM316.838 4.68H314.558L314.398 3.16H316.678L316.838 4.68ZM318.358 12.86L318.478 11.9H316.578L316.458 12.86L317.298 13.64L318.358 12.86Z" fill="white"/>
</svg>

<svg width="331" height="20" fill="none" xmlns="http://www.w3.org/2000/svg"><path d="m3.082 5.36.28-1.96-.5-.58h3.94l-.36 2.54h1.06l-.26 1.78h-1.04l-.32 2.26.9-.26-.3 2.08-.9.26-.6 4.36a1.47 1.47 0 0 1-.54.96q-.44.36-1 .36h-3.1l1.34-1.8.4-2.84-1.12.32.3-2.1 1.1-.32.46-3.28h-1.02l.26-1.78zm5.94 3.44.32-2.26h-1.66l.28-1.9h1.64l.16-1.04-.52-.8h3.74l-2.04 14.38h-3.1l.38-2.68h-1.66l.28-1.9h1.64l.28-1.9h-1.64l.26-1.9zm4.8-6.02h3.1l-.26 1.84h1.6l-.28 1.9h-1.6l-.32 2.28h1.64l-.26 1.9h-1.64l-.28 1.88h1.68l-.28 1.9h-1.66l-.38 2.7h-3.1zm21.718 8.36-.8 5.7H18.78l.8-5.7zM28.2 6.58l.7 1.72h1.48l2.12-2.56.04-.3h-7.96l-.96 1.14h-3.8l2.82-3.34-.4-.46h4.58l-.64.76H36.6l-.4 2.86-3.2 3.8H19.7l.28-1.9h5.12l-.7-1.72zm3 8.36.26-1.9H23.1l-.26 1.9zM91.942 4.12l-.34-.58h6.34l-1.8 12.82h-5.92zm16.44-.96-.7 4.96h-6.62l-1.68 9.04h-2.76l2.48-14zm-1.28 9.22-3.28.86-.22 1.68h2.36l.84-.76-.42 3.02h-6.14l1.2-8.58h3.04l-.34 2.36 3.28-.86zm-1.44-7.4h-4.28l-.2 1.32h4.28zm-11.6 9.58.54-3.82h-1.2l-.54 3.82zm-.4-5.7h1.2l.5-3.52h-1.2zM116.8 4.68l-1.54.1-.2 1.42h2.1l-.28 1.9h-2.08l-1.28 9.08h-2.86l1.28-9.08h-1.9l.28-1.9h1.88l.18-1.24-1.9.1.26-1.9 6.34-.38zm5.46 11.18a1.6 1.6 0 0 1-.54.96q-.44.36-1.02.36h-3.2l1.8-1.86 1.16-8.36h3.04zm-3.66-12.6-.38-.48h3.22l-.52 1.52h6l-.8 3.04h-2.28l.3-1.14h-3.84l-.5 1.52h-2.66zm7.16 5.22-.5 7.6h-1.9l.5-7.6zm-6.06 0-1.66 7.6h-1.9l1.66-7.6zm-8.24.38-1.44 7.6h-1.52l1.44-7.6zm5.14 0-.72 6.46h-1.52l.72-6.46zM184.143 8.62l-.04.34.56.82.96-1.14.08-.54h-4.62l-1.16 6.08h-3l2.06-10.9 10.2-.3-.28 1.9-7.26.3-.22 1.12h7.3l-.38 2.8-2.12 2.32 1.76 2.8-3.04.04-.74-1.24-1.16 1.36h-3.08l2.84-2.92-1.38-2.24.08-.58zm-12.52 8.22 1.04-1.9.96-6.92h-.64l.26-1.82h4.06l-1.12 7.92 2.76.82h9.08l-.28 1.9h-10.42l-1.96-.58-.32.58zm4.98-13.68.82 2.24h-3.04l-.82-2.24zm23.659 1.7-2.7.18-.26 1.92h3.04l-.26 1.9h-3.06l-1.16 8.32h-3.04l1.16-8.32h-3.02l.26-1.9h3.04l.24-1.7-2.88.18.26-1.9 8.64-.58zm7.46-1.7-1.8 12.7a1.5 1.5 0 0 1-.52.96q-.441.36-1.02.36h-3.38l1.76-1.86 1.64-11.58-.48-.58zm-4.22 1.52-1.44 10.26h-2.26l1.44-10.26zm-13.62 11.78 1.38-7.04h2.28l-1.38 7.04zm6.84 0 .62-7.04h2.28l-.62 7.04zm27.118-7.98-.1.76h-4.18l-.18 1.32h6.08l-.26 1.9h-6.08l-.36 2.48h.94l1.36-1.9h3.42l-1.36 1.9h2.1l-.26 1.9h-16.72l.26-1.9h2.34l-.8-1.9h3.42l.72 1.9h.78l.36-2.48h-6.08l.26-1.9h6.08l.18-1.32h-4.18l.1-.76h-2.26l3.8-4.86-.4-.46h10.64l2.7 5.32zm-9.16-1.14h6.52l-1.14-2.28h-3.58zm29.838-4.18-.26 1.88h-2.98l-.38.96h2.9l-1 7.18h-1.8l-.3-.48.7-4.96h-3.36l-.7 4.96-.42.48h-1.82l1-7.18h2.16l.4-.96h-2.44l.26-1.88zm-10.1 8.62-.7 5.1h-7.04l.7-5.1zm-2.72-.42-.54-.52-.8.52h-3.28l.24-1.64h2.68l-.6-.56-.02.04h-2.04l1.56-3.02h2.12l-.16.28h4.6l-.24 1.7-2.36 1.56h2.16l-.24 1.64zm9.02-2.92-.6 4.26 2.5 4.44h-2.98l-.9-2.5-1.78 2.5h-2.78l3.74-4.5.6-4.2zm-7.16-3.34h-3.64l-.12.88h-2.34l.32-2.22h2.68l.04-.2-.66-.76h3.62l-.14.96h2.78l-.32 2.22h-2.34zm-2.24 10.28.3-2.08h-1.84l-.3 2.08zm-.6-7.5.74.74.94-.74zM268.243 4.44h1.74l.08-.5-.76-.76h4.06l-.18 1.26h2.44l-.26 1.9h-2.44l-.24 1.6h1.98l-.26 1.9h-1.98l-.22 1.6h1.98l-.28 1.9h-1.98l-.22 1.6h2.46l-.26 1.88h-7.4l-.04.32h-3.12l1.54-11-.64.2.32-2.28 3.92-1.28zm-8.32.92.28-1.96-.5-.58h3.94l-.36 2.54h.66l-.24 1.78h-.68l-.3 2.16.52-.16-.3 2.08-.5.16-.62 4.46a1.6 1.6 0 0 1-.54.96q-.44.36-1 .36h-3.1l1.34-1.8.4-2.88-1.14.36.3-2.1 1.12-.34.46-3.26h-1.06l.24-1.78zm6.84 9.58h1.76l.22-1.6h-1.76zm.5-3.5h1.74l.22-1.6h-1.74zm.48-3.5h1.76l.22-1.6h-1.74zm10.619-3-.62-.7h7.04l.1-.7-.64-.76h4.92l-.22 1.46h4.9l-.26 1.9h-12.04l-2.38 11.02h-3.42zM307.9 2.78l-1.98 3.08 5.64 11.32h-3.8l-3.96-8.04-5.16 8.04h-3.8l8.92-13.9-.42-.5zm17.458 12.16-1.54 2.24h-6.46l-.5-.46-.64.46h-3.8l2.74-2-1.5-1.38.26-1.9h-.74l.26-1.9h.74l.1-.64h2.66l-.1.64h1.9l.1-.64h2.66l-.1.64h.78l-.26 1.9h-.78l-.26 1.9-1.9 1.38 1.94 1.8 3.16-4.6-1.74-3.52h3.04l.48.96.66-.96v-.02l.36-2.64h-.72l-.68 1.9h-3.04l1.72-4.86-.38-.46h3.6l-.54 1.52h3.92l-.26 1.9h-.58l-.36 2.64-2.44 3.54 2.4 4.8h-3.04zm-10.36-7.98h-1.14l.28-1.9h3.04l.22-1.54-.34-.74h3.1l-.32 2.28h3.04l-.28 1.9h-1.24l.92 2.28h-2.28l-.56-1.38-.2 1.38h-2.66l.22-1.52-.98 1.52h-2.28zm5.86-3.8h2.28l-.6 1.52h-2.28zm-4.02 1.52h-2.28l-.16-1.52h2.28zm1.52 8.18.12-.96h-1.9l-.12.96.84.78z" fill="#fff"/></svg>
